svg/icon/ten.svg

<svg xmlns="http://www.w3.org/2000/svg" xmlns:xlink="http://www.w3.org/1999/xlink" width="32" height="32" viewBox="0 0 32 32"><defs><linearGradient id="ten-c" x1="50%" x2="50%" y1="0%" y2="100%"><stop offset="0%" stop-color="#FFF" stop-opacity=".5"/><stop offset="100%" stop-opacity=".5"/></linearGradient><circle id="ten-b" cx="16" cy="15" r="15"/><filter id="ten-a" width="111.7%" height="111.7%" x="-5.8%" y="-4.2%" filterUnits="objectBoundingBox"><feOffset dy=".5" in="SourceAlpha" result="shadowOffsetOuter1"/><feGaussianBlur in="shadowOffsetOuter1" result="shadowBlurOuter1" stdDeviation=".5"/><feComposite in="shadowBlurOuter1" in2="SourceAlpha" operator="out" result="shadowBlurOuter1"/><feColorMatrix in="shadowBlurOuter1" values="0 0 0 0 0 0 0 0 0 0 0 0 0 0 0 0 0 0 0.199473505 0"/></filter><path id="ten-e" d="M26.9699942,15.8671544 C26.7826166,18.535651 25.7176548,20.8383731 23.7750831,22.7750909 C23.2853098,23.2663421 22.7721298,23.7014683 22.2355467,24.08047 C22.2121497,24.0454115 22.186296,24.0113909 22.1575704,23.9783047 L26.8488971,15.85251 C26.8882709,15.8603228 26.9285685,15.8652269 26.9699942,15.8671544 Z M22.1134295,24.1654782 C22.1133166,24.1655557 22.1132037,24.1656331 22.1130907,24.1657106 C22.1132038,24.1656331 22.1133167,24.1655557 22.1134296,24.1654783 Z M21.7329923,24.4147521 C20.0422848,25.471588 18.1312425,26 15.9999726,26 C13.9632618,26 12.1262981,25.5174475 10.4890398,24.552332 C10.7349228,24.6967665 10.9854002,24.8301751 11.2404851,24.9525623 C11.2654439,24.9110913 11.2865256,24.8670932 11.3037649,24.8210527 L20.6960765,24.8210527 C20.7132119,24.8665739 20.734259,24.9105028 20.7594601,24.9525623 C21.0917855,24.791888 21.416231,24.6125779 21.7329589,24.4146795 Z M9.76473144,24.0847377 C9.22481059,23.7047358 8.70829045,23.268187 8.21516936,22.7750909 C6.27844803,20.8383745 5.21667873,18.5356543 5.02986148,15.8671602 C5.07133146,15.8652377 5.11173836,15.860434 5.15104805,15.85251 L9.84227092,23.9782354 C9.8130476,24.0121055 9.78717842,24.0474815 9.76473144,24.0847377 Z M5.00105474,14.8310328 C5.04013771,11.863888 6.11150925,9.32532617 8.21516936,7.21521632 C10.3652295,5.07173877 12.9600832,4 15.9999726,4 C19.0397928,4 21.6316001,5.07173877 23.7750831,7.21521632 C25.915347,9.35557821 26.9902861,11.9367654 26.9999347,14.9589144 C26.9990499,14.6866521 26.9893747,14.4178623 26.9708181,14.1523363 C26.9296932,14.1541364 26.8889144,14.1589828 26.849001,14.1669793 L22.1625553,6.02664556 C22.1922912,5.99189021 22.2182886,5.9562002 22.2406165,5.91940245 C21.7672987,5.58476102 21.2751838,5.29408303 20.764445,5.04736849 C20.737236,5.09240506 20.7145619,5.13948402 20.6961111,5.18867461 L11.3037995,5.18867461 C11.2852448,5.13906862 11.2626053,5.09198965 11.2355694,5.04736849 C10.7246229,5.29314837 10.2326119,5.58219937 9.75953635,5.91455609 C9.78255664,5.95536939 9.81014637,5.99427877 9.84230554,6.03149192 L5.15104805,14.1669793 C5.111377,14.1589828 5.07084052,14.1541364 5.02926554,14.1523363 C5.01359186,14.3761303 5.00418722,14.6023784 5.00108744,14.8310447 Z M26.3470895,14.4592842 C26.2776132,14.5391108 26.2256878,14.6250991 26.1913131,14.7174224 L22.3135891,14.7174224 C22.2710449,14.6035328 22.2028494,14.4995091 22.1088643,14.4056973 C22.0150177,14.3117817 21.9111322,14.2435864 21.7971385,14.2010423 L21.7971385,6.57220768 L26.3470895,14.4592842 Z M26.1912439,15.3020323 C26.2256878,15.3943209 26.2776132,15.4803093 26.3471241,15.5602051 L21.7971385,23.4375197 L21.7971385,15.8185163 C21.9111322,15.7761106 22.0150177,15.7077768 22.1088643,15.6139305 C22.2028494,15.5199456 22.2710449,15.4160257 22.3135891,15.3020323 L26.1912439,15.3020323 Z M5.80870129,14.7174224 C5.7742574,14.625203 5.72229733,14.5391108 5.65275183,14.4592842 L10.2028413,6.57220768 L10.2028413,14.2010423 C10.0888476,14.2435518 9.98496208,14.3117817 9.89104623,14.4056973 C9.79713039,14.4995437 9.72900419,14.6035328 9.68645993,14.7174224 L5.80870129,14.7174224 Z M11.2940721,5.79273927 C11.2981569,5.78609282 11.3014109,5.77965408 11.3037649,5.77321534 L20.6960765,5.77321534 C20.7312819,5.86581551 20.783242,5.95180385 20.8521298,6.03145731 L17.9826597,10.9906377 C17.9341267,10.980945 17.8838975,10.9760986 17.8317643,10.9760986 C17.6766803,10.9760986 17.535443,11.013381 17.4077756,11.0880842 L11.2940721,5.79273927 Z M11.3037649,14.7174224 C11.2612206,14.6035328 11.193129,14.4995091 11.0991786,14.4056973 C11.0052627,14.3117817 10.9013772,14.2435864 10.7873835,14.2010423 L10.7873835,6.57220768 L15.3423194,14.4494877 C15.2740201,14.5324297 15.2237562,14.6217759 15.1912163,14.7174224 L11.3037649,14.7174224 Z M18.6355704,12.1404376 C18.6711567,12.0449988 18.6890536,11.9426367 18.6890536,11.8334896 C18.6890536,11.624819 18.6224506,11.4413149 18.4894176,11.2829773 L21.2125271,6.57220768 L21.2125271,14.2010423 C21.1687712,14.2168276 21.1267462,14.2363515 21.085829,14.2595448 L18.6355704,12.1404376 Z M17.0327007,11.5265417 C16.9936874,11.6208381 16.9743019,11.7232002 16.9742327,11.8334896 C16.9742327,12.0434757 17.0423935,12.2269105 17.1787844,12.384002 L16.1510757,14.1571827 C16.102335,14.14749 16.0519327,14.1426436 15.9999726,14.1426436 C15.9482202,14.1426436 15.8977833,14.14749 15.8488695,14.1571827 L11.6155599,6.84014237 L17.0327007,11.5265417 Z M16.8134714,14.7174224 C16.7790622,14.6213259 16.7268944,14.5319451 16.6576258,14.4495223 L17.6806612,12.6763416 C17.7293673,12.6860343 17.7795965,12.6908807 17.8317643,12.6908807 C17.986606,12.6908807 18.1279817,12.6535637 18.2555453,12.578895 L20.7059769,14.6980023 C20.7033114,14.7044756 20.7000574,14.710949 20.6960765,14.7174224 L16.8134714,14.7174224 Z M20.9008359,15.6138958 C20.9946478,15.707673 21.098568,15.7760413 21.2125271,15.8185163 L21.2125271,23.4374504 L16.6576258,15.5455275 C16.7217711,15.4703396 16.7704772,15.3892669 16.8037787,15.3019285 L20.6960765,15.3019285 C20.7386553,15.4159219 20.8068162,15.5198418 20.9008359,15.6138958 Z M15.85877,15.8475598 C15.9036682,15.8540332 15.9508857,15.8574949 16.0000072,15.857391 C16.0523135,15.857391 16.102785,15.8523716 16.1511103,15.8426788 L20.3844199,23.1743967 L14.9720216,18.4927745 C15.0077809,18.3971973 15.0256779,18.2950775 15.0256779,18.1858266 C15.0256779,17.9772945 14.9590749,17.7936519 14.8258687,17.635522 L15.85877,15.8475598 Z M20.7059769,24.2169535 C20.7033114,24.2233922 20.7000574,24.2299002 20.6960765,24.2364774 L11.3037649,24.2364774 C11.2701864,24.1437387 11.2198533,24.057785 11.1527656,23.9782354 L14.0172855,19.0286785 C14.0658185,19.0383712 14.1160477,19.0433215 14.1681809,19.0433215 C14.3234726,19.0433215 14.4646752,19.0060391 14.5921696,18.9313012 L20.7059769,24.2169535 Z M14.319284,17.3432516 C14.2703702,17.3333858 14.220141,17.3286779 14.1681809,17.3286779 C14.0130968,17.3286779 13.8718942,17.3659949 13.7443999,17.4407327 L11.2940721,15.3215909 C11.2981569,15.3147367 11.3014109,15.3083326 11.3037649,15.3020323 L15.1961319,15.3020323 C15.2298142,15.3927632 15.2802511,15.477263 15.347235,15.5552895 L14.319284,17.3432516 Z M13.369325,17.8791556 C13.3303117,17.9735212 13.3108916,18.075918 13.3109262,18.1859304 C13.3109262,18.3959857 13.3790524,18.5794898 13.5155125,18.7364428 L10.7874181,23.4424006 L10.7874181,15.8184816 C10.831174,15.8026617 10.8734413,15.7832417 10.914047,15.7600483 L13.369325,17.8791556 Z M9.89101162,15.6138958 C9.98492746,15.707673 10.088813,15.7760413 10.2028067,15.8185163 L10.2028067,23.4374851 L5.65275183,15.5602051 C5.72229733,15.4802401 5.7742574,15.3942863 5.80870129,15.3019285 L9.68642531,15.3019285 C9.72896957,15.4159219 9.79709577,15.5198418 9.89101162,15.6138958 Z"/><filter id="ten-d" width="115.9%" height="115.9%" x="-8%" y="-5.7%" filterUnits="objectBoundingBox"><feOffset dy=".5" in="SourceAlpha" result="shadowOffsetOuter1"/><feGaussianBlur in="shadowOffsetOuter1" result="shadowBlurOuter1" stdDeviation=".5"/><feColorMatrix in="shadowBlurOuter1" values="0 0 0 0 0 0 0 0 0 0 0 0 0 0 0 0 0 0 0.204257246 0"/></filter></defs><g fill="none" fill-rule="evenodd"><g fill-rule="nonzero"><use fill="#000" filter="url(#ten-a)" xlink:href="#ten-b"/><use fill="#0899CD" fill-rule="evenodd" xlink:href="#ten-b"/><use fill="url(#ten-c)" fill-rule="evenodd" style="mix-blend-mode:soft-light" xlink:href="#ten-b"/><circle cx="16" cy="15" r="14.5" stroke="#000" stroke-linejoin="square" stroke-opacity=".097"/></g><g fill-rule="nonzero"><use fill="#000" filter="url(#ten-d)" xlink:href="#ten-e"/><use fill="#FFF" fill-rule="evenodd" xlink:href="#ten-e"/></g></g></svg>

<svg xmlns="http://www.w3.org/2000/svg" xmlns:xlink="http://www.w3.org/1999/xlink" width="32" height="32" viewBox="0 0 32 32"><defs><linearGradient id="c" x1="50%" x2="50%" y1="0%" y2="100%"><stop offset="0%" stop-color="#FFF" stop-opacity=".5"/><stop offset="100%" stop-opacity=".5"/></linearGradient><circle id="b" cx="16" cy="15" r="15"/><filter id="a" width="111.7%" height="111.7%" x="-5.8%" y="-4.2%" filterUnits="objectBoundingBox"><feOffset dy=".5" in="SourceAlpha" result="shadowOffsetOuter1"/><feGaussianBlur in="shadowOffsetOuter1" result="shadowBlurOuter1" stdDeviation=".5"/><feComposite in="shadowBlurOuter1" in2="SourceAlpha" operator="out" result="shadowBlurOuter1"/><feColorMatrix in="shadowBlurOuter1" values="0 0 0 0 0 0 0 0 0 0 0 0 0 0 0 0 0 0 0.199473505 0"/></filter><path id="e" d="M26.97 15.867c-.187 2.669-1.252 4.971-3.195 6.908-.49.491-1.003.926-1.54 1.305a1.014 1.014 0 0 0-.077-.102l4.69-8.125c.04.007.08.012.122.014zm-4.857 8.298zm-.38.25C20.043 25.472 18.131 26 16 26c-2.037 0-3.874-.483-5.511-1.448.246.145.496.278.751.4a.796.796 0 0 0 .064-.13h9.392a.78.78 0 0 0 .063.13c.333-.16.657-.34.974-.537zm-11.968-.33a11.79 11.79 0 0 1-1.55-1.31c-1.937-1.937-2.998-4.24-3.185-6.908a.8.8 0 0 0 .121-.014l4.691 8.125a.776.776 0 0 0-.077.107zM5 14.83c.04-2.967 1.11-5.506 3.214-7.616C10.365 5.072 12.96 4 16 4s5.632 1.072 7.775 3.215c2.14 2.14 3.215 4.722 3.225 7.744a11.32 11.32 0 0 0-.03-.807.798.798 0 0 0-.121.015l-4.686-8.14a.817.817 0 0 0 .078-.108 10.36 10.36 0 0 0-1.477-.872.849.849 0 0 0-.068.142h-9.392a.839.839 0 0 0-.068-.142c-.511.246-1.003.535-1.476.868.023.04.05.08.082.116l-4.691 8.136a.787.787 0 0 0-.122-.015c-.015.224-.025.45-.028.679zm21.346-.372a.836.836 0 0 0-.156.258h-3.877a.868.868 0 0 0-.205-.311.868.868 0 0 0-.312-.205V6.572l4.55 7.887zm-.156.843a.839.839 0 0 0 .156.258l-4.55 7.878v-7.62a.867.867 0 0 0 .312-.204.87.87 0 0 0 .205-.312h3.877zm-20.38-.584a.838.838 0 0 0-.156-.258l4.55-7.887v7.629a.868.868 0 0 0-.312.205.869.869 0 0 0-.205.311H5.81zm5.485-8.924a.109.109 0 0 0 .01-.02h9.392a.86.86 0 0 0 .156.258l-2.87 4.96a.824.824 0 0 0-.575.097l-6.113-5.295zm.01 8.924a.868.868 0 0 0-.205-.311.869.869 0 0 0-.312-.205V6.572l4.555 7.877a.85.85 0 0 0-.15.268h-3.888zm7.332-2.577a.872.872 0 0 0 .053-.307.83.83 0 0 0-.2-.55l2.724-4.71V14.2a.822.822 0 0 0-.127.059l-2.45-2.12zm-1.603-.613a.796.796 0 0 0-.059.306c0 .21.068.394.205.551l-1.028 1.773a.773.773 0 0 0-.302 0L11.616 6.84l5.417 4.687zm-.22 3.19a.872.872 0 0 0-.155-.267l1.023-1.774a.824.824 0 0 0 .575-.097l2.45 2.119a.135.135 0 0 1-.01.02h-3.883zm4.088.897a.869.869 0 0 0 .312.205v7.618l-4.555-7.891a.829.829 0 0 0 .146-.244h3.892a.87.87 0 0 0 .205.312zm-5.042.234a.976.976 0 0 0 .292-.005l4.233 7.331-5.412-4.681a.868.868 0 0 0 .054-.307.829.829 0 0 0-.2-.55l1.033-1.788zm4.847 8.369a.144.144 0 0 1-.01.02h-9.392a.845.845 0 0 0-.151-.259l2.864-4.95a.823.823 0 0 0 .575-.097l6.114 5.286zm-6.387-6.874a.822.822 0 0 0-.575.097l-2.45-2.118a.122.122 0 0 0 .01-.02h3.892c.034.09.084.175.151.253l-1.028 1.788zm-.95.536a.795.795 0 0 0-.058.307c0 .21.068.393.205.55l-2.729 4.706v-7.624a.81.81 0 0 0 .127-.058l2.455 2.12zm-3.478-2.265a.87.87 0 0 0 .312.205v7.618l-4.55-7.877a.839.839 0 0 0 .156-.258h3.877a.87.87 0 0 0 .205.312z"/><filter id="d" width="115.9%" height="115.9%" x="-8%" y="-5.7%" filterUnits="objectBoundingBox"><feOffset dy=".5" in="SourceAlpha" result="shadowOffsetOuter1"/><feGaussianBlur in="shadowOffsetOuter1" result="shadowBlurOuter1" stdDeviation=".5"/><feColorMatrix in="shadowBlurOuter1" values="0 0 0 0 0 0 0 0 0 0 0 0 0 0 0 0 0 0 0.204257246 0"/></filter></defs><g fill="none"><use fill="#000" filter="url(#a)" xlink:href="#b"/><use fill="#0899CD" fill-rule="evenodd" xlink:href="#b"/><use fill="url(#c)" fill-rule="evenodd" style="mix-blend-mode:soft-light" xlink:href="#b"/><circle cx="16" cy="15" r="14.5" stroke="#000" stroke-linejoin="square" stroke-opacity=".097"/><use fill="#000" filter="url(#d)" xlink:href="#e"/><use fill="#FFF" fill-rule="evenodd" xlink:href="#e"/></g></svg>
